Numix-Light/16/status/indicator-keyboard-Th-2.svg

<?xml version="1.0" encoding="UTF-8" standalone="no"?>
<svg
   xmlns:dc="http://purl.org/dc/elements/1.1/"
   xmlns:cc="http://creativecommons.org/ns#"
   xmlns:rdf="http://www.w3.org/1999/02/22-rdf-syntax-ns#"
   xmlns:svg="http://www.w3.org/2000/svg"
   xmlns="http://www.w3.org/2000/svg"
   xmlns:sodipodi="http://sodipodi.sourceforge.net/DTD/sodipodi-0.dtd"
   xmlns:inkscape="http://www.inkscape.org/namespaces/inkscape"
   viewBox="0 0 16 16"
   id="svg2"
   version="1.1"
   inkscape:version="0.91 r13725"
   sodipodi:docname="indicator-keyboard-Th-2.svg">
  <metadata
     id="metadata14">
    <rdf:RDF>
      <cc:Work
         rdf:about="">
        <dc:format>image/svg+xml</dc:format>
        <dc:type
           rdf:resource="http://purl.org/dc/dcmitype/StillImage" />
      </cc:Work>
    </rdf:RDF>
  </metadata>
  <defs
     id="defs12" />
  <sodipodi:namedview
     pagecolor="#ffffff"
     bordercolor="#666666"
     borderopacity="1"
     objecttolerance="10"
     gridtolerance="10"
     guidetolerance="10"
     inkscape:pageopacity="0"
     inkscape:pageshadow="2"
     inkscape:window-width="459"
     inkscape:window-height="369"
     id="namedview10"
     showgrid="false"
     inkscape:zoom="14.75"
     inkscape:cx="8"
     inkscape:cy="8"
     inkscape:window-x="65"
     inkscape:window-y="24"
     inkscape:window-maximized="0"
     inkscape:current-layer="svg2" />
  <path
     style="fill:#353535;fill-opacity:1"
     d="M 1.5996094 0 C 0.71320937 2.9605947e-16 0 0.71320937 0 1.5996094 L 0 14.400391 C 2.9605947e-16 15.286791 0.71320937 16 1.5996094 16 L 14.400391 16 C 15.286791 16 16 15.286791 16 14.400391 L 16 1.5996094 C 16 0.71320937 15.286791 0 14.400391 0 L 1.5996094 0 z M 7.7851562 4.1113281 L 7.7851562 6.578125 C 7.9771563 6.506125 8.1730937 6.4520156 8.3710938 6.4160156 C 8.5690938 6.3740156 8.7668438 6.3535156 8.9648438 6.3535156 C 9.3248437 6.3535156 9.6252344 6.4038594 9.8652344 6.5058594 C 10.105234 6.6078594 10.297406 6.7552656 10.441406 6.9472656 C 10.585406 7.1332656 10.684281 7.3570938 10.738281 7.6210938 C 10.798281 7.8850937 10.828125 8.1761406 10.828125 8.4941406 L 10.828125 11.095703 L 10.242188 11.095703 L 10.242188 8.6835938 C 10.242188 8.3535938 10.219875 8.0756562 10.171875 7.8476562 C 10.129875 7.6196563 10.053312 7.4330625 9.9453125 7.2890625 C 9.8433125 7.1450625 9.70525 7.0424219 9.53125 6.9824219 C 9.35725 6.9164219 9.139 6.8847656 8.875 6.8847656 C 8.773 6.8847656 8.6629688 6.8921562 8.5429688 6.9101562 C 8.4289687 6.9281563 8.32075 6.9506094 8.21875 6.9746094 C 8.11675 6.9926094 8.0234531 7.0131094 7.9394531 7.0371094 C 7.8614531 7.0611094 7.8091563 7.0797969 7.7851562 7.0917969 L 7.7851562 11.095703 L 7.2011719 11.095703 L 7.2011719 4.2207031 L 7.7851562 4.1113281 z M 1.6503906 4.859375 L 6.2578125 4.859375 L 6.2578125 5.390625 L 4.2597656 5.390625 L 4.2597656 11.095703 L 3.6484375 11.095703 L 3.6484375 5.390625 L 1.6503906 5.390625 L 1.6503906 4.859375 z M 13.021484 8.7539062 C 13.415384 8.7539062 13.713209 8.851875 13.912109 9.046875 C 14.111009 9.237975 14.208984 9.5044563 14.208984 9.8476562 C 14.208984 9.9997563 14.183506 10.14475 14.128906 10.28125 C 14.074306 10.41385 13.99985 10.543169 13.90625 10.667969 C 13.81655 10.792769 13.712703 10.912297 13.595703 11.029297 C 13.478703 11.146297 13.359181 11.263859 13.238281 11.380859 C 13.136881 11.478359 13.038906 11.578288 12.941406 11.679688 C 12.847806 11.777188 12.761594 11.877116 12.683594 11.978516 C 12.609494 12.076016 12.548753 12.172031 12.501953 12.269531 C 12.459053 12.363131 12.4375 12.457181 12.4375 12.550781 L 12.4375 12.5625 L 14.349609 12.5625 L 14.349609 12.896484 L 12.015625 12.896484 C 12.015625 12.888684 12.013699 12.874969 12.009766 12.855469 L 12.009766 12.755859 C 12.009766 12.572559 12.043075 12.402094 12.109375 12.246094 C 12.175675 12.086194 12.259928 11.937275 12.361328 11.796875 C 12.466628 11.656475 12.582231 11.525197 12.707031 11.404297 C 12.835731 11.283397 12.957219 11.165834 13.074219 11.052734 C 13.171719 10.959134 13.263809 10.869003 13.349609 10.783203 C 13.439309 10.693503 13.517684 10.603366 13.583984 10.509766 C 13.650284 10.416166 13.703188 10.316237 13.742188 10.210938 C 13.781187 10.105638 13.800781 9.9900344 13.800781 9.8652344 C 13.800781 9.5922344 13.726325 9.39825 13.578125 9.28125 C 13.433826 9.16035 13.249644 9.0996094 13.027344 9.0996094 C 12.902544 9.0996094 12.792812 9.1152844 12.695312 9.1464844 C 12.597813 9.1776844 12.5116 9.2149125 12.4375 9.2578125 C 12.3673 9.2968125 12.306559 9.3379594 12.255859 9.3808594 C 12.205159 9.4237594 12.167931 9.4570688 12.144531 9.4804688 L 11.945312 9.2167969 C 11.968713 9.1894969 12.009859 9.1503094 12.068359 9.0996094 C 12.130759 9.0450094 12.207175 8.9921062 12.296875 8.9414062 C 12.390475 8.8907063 12.498241 8.8476 12.619141 8.8125 C 12.740041 8.7735 12.873284 8.7539063 13.021484 8.7539062 z "
     id="path4" />
</svg>

<svg xmlns="http://www.w3.org/2000/svg" viewBox="0 0 16 16">
 <path d="m 1.6 0 c -0.886 0 -1.6 0.713 -1.6 1.6 l 0 12.801 c 0 0.886 0.713 1.6 1.6 1.6 l 12.801 0 c 0.886 0 1.6 -0.713 1.6 -1.6 l 0 -12.801 c 0 -0.886 -0.713 -1.6 -1.6 -1.6 l -12.801 0 z m 6.186 4.111 l 0 2.467 c 0.192 -0.072 0.388 -0.126 0.586 -0.162 c 0.198 -0.042 0.396 -0.063 0.594 -0.063 c 0.36 0 0.66 0.05 0.9 0.152 c 0.24 0.102 0.432 0.249 0.576 0.441 c 0.144 0.186 0.243 0.41 0.297 0.674 c 0.06 0.264 0.09 0.555 0.09 0.873 l 0 2.602 l -0.586 0 l 0 -2.412 c 0 -0.33 -0.022 -0.608 -0.07 -0.836 c -0.042 -0.228 -0.119 -0.415 -0.227 -0.559 c -0.102 -0.144 -0.24 -0.247 -0.414 -0.307 c -0.174 -0.066 -0.392 -0.098 -0.656 -0.098 c -0.102 0 -0.212 0.007 -0.332 0.025 c -0.114 0.018 -0.222 0.04 -0.324 0.064 c -0.102 0.018 -0.195 0.038 -0.279 0.063 c -0.078 0.024 -0.13 0.043 -0.154 0.055 l 0 4 l -0.584 0 l 0 -6.875 l 0.584 -0.109 z m -6.135 0.748 l 4.607 0 l 0 0.531 l -1.998 0 l 0 5.705 l -0.611 0 l 0 -5.705 l -1.998 0 l 0 -0.531 z m 11.371 3.895 c 0.394 0 0.692 0.098 0.891 0.293 c 0.199 0.191 0.297 0.458 0.297 0.801 c 0 0.152 -0.025 0.297 -0.08 0.434 c -0.055 0.133 -0.129 0.262 -0.223 0.387 c -0.09 0.125 -0.194 0.244 -0.311 0.361 c -0.117 0.117 -0.237 0.235 -0.357 0.352 c -0.101 0.098 -0.199 0.197 -0.297 0.299 c -0.094 0.098 -0.18 0.197 -0.258 0.299 c -0.074 0.097 -0.135 0.194 -0.182 0.291 c -0.043 0.094 -0.064 0.188 -0.064 0.281 l 0 0.012 l 1.912 0 l 0 0.334 l -2.334 0 c 0 -0.008 -0.002 -0.022 -0.006 -0.041 l 0 -0.1 c 0 -0.183 0.033 -0.354 0.1 -0.51 c 0.066 -0.16 0.151 -0.309 0.252 -0.449 c 0.105 -0.14 0.221 -0.272 0.346 -0.393 c 0.129 -0.121 0.25 -0.238 0.367 -0.352 c 0.098 -0.094 0.19 -0.184 0.275 -0.27 c 0.09 -0.09 0.168 -0.18 0.234 -0.273 c 0.066 -0.094 0.119 -0.194 0.158 -0.299 c 0.039 -0.105 0.059 -0.221 0.059 -0.346 c 0 -0.273 -0.074 -0.467 -0.223 -0.584 c -0.144 -0.121 -0.328 -0.182 -0.551 -0.182 c -0.125 0 -0.235 0.016 -0.332 0.047 c -0.097 0.031 -0.184 0.068 -0.258 0.111 c -0.07 0.039 -0.131 0.08 -0.182 0.123 c -0.051 0.043 -0.088 0.076 -0.111 0.1 l -0.199 -0.264 c 0.023 -0.027 0.065 -0.066 0.123 -0.117 c 0.062 -0.055 0.139 -0.108 0.229 -0.158 c 0.094 -0.051 0.201 -0.094 0.322 -0.129 c 0.121 -0.039 0.254 -0.059 0.402 -0.059 z" style="fill:#353535;fill-opacity:1"/>
</svg>
